resources/haticons/SVG/local_convenience_store.svg

<!-- Generated by IcoMoon.io -->
<svg version="1.1" xmlns="http://www.w3.org/2000/svg" width="24" height="24" viewBox="0 0 24 24">
<title>local_convenience_store</title>
<path d="M15.984 12v-5.016h-0.984v2.016h-0.984v-2.016h-1.031v3h2.016v2.016h0.984zM11.016 9.984v-3h-3v1.031h1.969v0.984h-1.969v3h3v-0.984h-2.016v-1.031h2.016zM18.984 6.984h3v13.031h-7.969v-4.031h-4.031v4.031h-7.969v-13.031h3v-3h13.969v3z"></path>
</svg>

<svg xmlns="http://www.w3.org/2000/svg" width="24" height="24"><path d="M15.984 12V6.984H15V9h-.984V6.984h-1.031v3h2.016V12h.984zm-4.968-2.016v-3h-3v1.031h1.969v.984H8.016v3h3v-.984H9V9.984h2.016zm7.968-3h3v13.031h-7.969v-4.031H9.984v4.031H2.015V6.984h3v-3h13.969v3z"/></svg>
